X: 1429
T: The Green Groves Of Erin
M:C|
L:1/8
N:"collected by F. O'Neill"
B:O'Neill's 1429
Z:"Transcribed by Bob Safranek, rjs@gsp.org"
K:A
 A2 ((3cBA) eA ((3cBA)| BGBd       gedB  | A2 ((3cBA) eAcA   | BGEF    GABG   |
 A2 ((3cBA) eA ((3cBA)| BGBd       gedB  | A2 ((3cBA) eAcA   | BGTED  (EA) A2 ||
(ea)(ag)   (ea)(ag)   |(ef)(=gf) (ef)(gf)|(ea)(ag)   (ea)(ag)|(eg)(fa) gedB   |
 eaab       c'abg     | egfa       gfge  | dega       bgag   | egfa    gedB   |]


